fs/table_bottom_row_32_regular.svg

<svg viewBox="0 0 32 32" fill="none" xmlns="http://www.w3.org/2000/svg" height="1em" width="1em">
  <path d="M9 4C6.23858 4 4 6.23858 4 9V23C4 25.7614 6.23858 28 9 28H23C25.7614 28 28 25.7614 28 23V9C28 6.23858 25.7614 4 23 4H9ZM6 9C6 7.34315 7.34315 6 9 6H23C24.6569 6 26 7.34315 26 9V19H6V9ZM6 23V21H11V26H9C7.34315 26 6 24.6569 6 23ZM13 26V21H19V26H13ZM21 26V21H26V23C26 24.6569 24.6569 26 23 26H21Z" fill="#212121"/>
</svg>

<svg viewBox="0 0 32 32" fill="none" xmlns="http://www.w3.org/2000/svg" height="1em" width="1em">
  <path d="M9 4a5 5 0 0 0-5 5v14a5 5 0 0 0 5 5h14a5 5 0 0 0 5-5V9a5 5 0 0 0-5-5H9ZM6 9a3 3 0 0 1 3-3h14a3 3 0 0 1 3 3v10H6V9Zm0 14v-2h5v5H9a3 3 0 0 1-3-3Zm7 3v-5h6v5h-6Zm8 0v-5h5v2a3 3 0 0 1-3 3h-2Z" fill="#212121"/>
</svg>
